src/assets/icons/months,simple,november-11.svg

<svg width="48" height="48" viewBox="0 0 48 48" fill="none" xmlns="http://www.w3.org/2000/svg">
<rect opacity="0.2" x="5" y="5" width="38" height="38" rx="4" fill="black"/>
<path d="M5 13C5 9.22876 5 7.34315 6.17157 6.17157C7.34315 5 9.22876 5 13 5H35C38.7712 5 40.6569 5 41.8284 6.17157C43 7.34315 43 9.22876 43 13V15H5V13Z" fill="black"/>
<path d="M16.9474 23.3636H14.4986V30.6818H14.3963L9.37358 23.3636H7.21449V35H9.67472V27.6761H9.75994L14.8224 35H16.9474V23.3636ZM29.6733 29.1818C29.6733 25.375 27.3097 23.2045 24.2244 23.2045C21.1222 23.2045 18.7756 25.375 18.7756 29.1818C18.7756 32.9716 21.1222 35.1591 24.2244 35.1591C27.3097 35.1591 29.6733 32.9886 29.6733 29.1818ZM27.179 29.1818C27.179 31.6477 26.0085 32.983 24.2244 32.983C22.4347 32.983 21.2699 31.6477 21.2699 29.1818C21.2699 26.7159 22.4347 25.3807 24.2244 25.3807C26.0085 25.3807 27.179 26.7159 27.179 29.1818ZM32.9418 23.3636H30.2088L34.2259 35H37.3963L41.4077 23.3636H38.6804L35.8622 32.2045H35.7543L32.9418 23.3636Z" fill="black"/>
</svg>

<svg xmlns="http://www.w3.org/2000/svg" width="48" height="48" fill="none" viewBox="0 0 48 48">
  <rect width="38" height="38" x="5" y="5" fill="#000" opacity=".2" rx="4"/>
  <path fill="#000" d="M5 13c0-3.771 0-5.657 1.172-6.828C7.343 5 9.229 5 13 5h22c3.771 0 5.657 0 6.828 1.172C43 7.343 43 9.229 43 13v2H5v-2zM16.947 23.364H14.5v7.318h-.103l-5.022-7.318h-2.16V35h2.46v-7.324h.086L14.822 35h2.125V23.364zm12.726 5.818c0-3.807-2.363-5.977-5.449-5.977-3.102 0-5.448 2.17-5.448 5.977 0 3.79 2.346 5.977 5.448 5.977 3.086 0 5.45-2.17 5.45-5.977zm-2.494 0c0 2.466-1.17 3.801-2.955 3.801-1.79 0-2.954-1.335-2.954-3.801s1.165-3.801 2.954-3.801c1.785 0 2.955 1.335 2.955 3.8zm5.763-5.818h-2.733L34.226 35h3.17l4.012-11.636H38.68l-2.818 8.84h-.108l-2.812-8.84z"/>
</svg>
